X:45
T: Brosna Slide
M:12/8
R:jig
L:1/8
Z:added by Alf Warnock - alf0@rogers.com - http:/members.rogers.com/alf0
K:G
|:"G"D2G G2A BAB d2B|"D7"A2D FED A2D FED|
"G"G3 G2A BAB d2B|"D7"A2D FED"G"G3 G3:|
|:"Em"g2f efg "D7"f2e d2B|"C"cBc A2B "D7"c2d e2f|
"Em"g2f efg "D7"f2e d2B|"C"c2A F2D "G"G3 G3:|
